X:1
T:Title
%%score { 1 | 2 }
L:1/8
M:4/4
K:F
V:1 treble nm="Grand Piano"
V:2 bass 
V:1
 z4 z2[Q:1/4=96] C2 | C2 F2 A2 d2 | c3 [GB] A2 F2 | E2 F2 B2 A2 |[M:3/4] [EG]6 |[M:1/4] C2 | %6
[M:4/4] C2 F2 A2 c2 | c3 d c2 [DFB]2 | [CFA]2 [A,CF]2 [B,DF]2 [B,EG]2 |[M:3/4] [A,F]6 | %10
[M:1/4] [EG]2 |[M:4/4] [EG]3 [DF] E2 d2 | c3 B A2 A2 | G2 c2 =B2 d2 |[M:3/4] [Ec]6 |[M:1/4] [Fc]2 | %16
[M:4/4] [Gc]3 [GB] A2 B2 |[M:9/8] c2 _e- e d2- d [Fd]2 |[M:4/4] [Fc]2 [FA]2 [EA]3 [EG] | %19
[M:3/4] F6 |] %20
V:2
 z4 z2 [F,A,]2 | [F,A,]2 [F,A,C]2 [F,CF]2 [F,B,F]2 | [F,A,F]3 [E,C] [F,CF]2 [A,C]2 | %3
 [G,B,C]2 [F,A,C]2 [E,G,C]2 [F,C]2 |[M:3/4] [C,C]6 |[M:1/4] [F,A,]2 | %6
[M:4/4] [F,A,]2 [F,A,C]2 [F,CF]2 [F,A,F]2 | [F,A,F]3 [F,B,F] [F,A,F]2 B,,2 | C,2 C,2 C,2 C,2 | %9
[M:3/4] F,6 |[M:1/4] [C,C]2 |[M:4/4] [C,C]3 [C,C] [C,C]2[K:treble] [B,E]2 | %12
 [A,CF]3 [G,CE] [F,CF]2 [F,CF]2 | [E,C]2 [A,CE]2[K:treble] [G,DF]2 [G,=B,F]2 | %14
[M:3/4][K:bass] [C,C]6 |[M:1/4] [D,C]2 |[M:4/4] [E,C]3 [E,C] [F,CF]2[K:treble] [F,G,F]2 | %17
[M:9/8] [F,A,F]2 [A,CF]- [A,CF] [B,F]2- [B,F][K:bass] [B,,B,]2 | %18
[M:4/4] [C,A,]2 [C,C]2 [C,C]3 [C,B,] |[M:3/4] [F,A,]6 |] %20

